Simply-White-Circles/scalable/actions/contact-new.svg

<svg xmlns="http://www.w3.org/2000/svg" width="24" height="24" version="1"><g fill="#e6e6e6" color="#000"><path d="M9.83.384c-1.287-.086-2.547.669-3.296 1.685-.73 1.317-.134 2.883-.59 4.272-.277.995 0 2.055.723 2.775.621.781 1.384 1.8.959 2.85-.616 1.18-1.839 1.873-2.952 2.502-.295.12-.675.326-.99.57-.284.08-.509.294-.509.602v2.802c0 .37.295.669.67.669h7.31a2.722 2.722 0 0 1 2.722-2.708h2.63v-1.419c-1.477-.797-3.13-1.576-3.957-3.133-.284-1.237.586-2.32 1.348-3.18.752-.955.455-2.215.193-3.286-.11-1.183.27-2.585-.61-3.554C12.525.863 11.147.466 9.833.384z" overflow="visible" style="isolation:auto;mix-blend-mode:normal;marker:none"/><path d="M17.45 14.825v3.061h-3.066v3.042l3.067.022v3.06h3.066v-3.06h3.067v-3.064h-3.067v-3.06z" overflow="visible" style="isolation:auto;mix-blend-mode:normal;marker:none"/></g></svg>

<?xml version="1.0" encoding="UTF-8" standalone="no"?>
<svg
   xmlns:dc="http://purl.org/dc/elements/1.1/"
   xmlns:cc="http://creativecommons.org/ns#"
   xmlns:rdf="http://www.w3.org/1999/02/22-rdf-syntax-ns#"
   xmlns:svg="http://www.w3.org/2000/svg"
   xmlns="http://www.w3.org/2000/svg"
   xmlns:sodipodi="http://sodipodi.sourceforge.net/DTD/sodipodi-0.dtd"
   xmlns:inkscape="http://www.inkscape.org/namespaces/inkscape"
   version="1"
   viewBox="0 0 24 24"
   id="svg8"
   sodipodi:docname="contact-new.svg"
   inkscape:version="0.92.4 (5da689c313, 2019-01-14)">
  <metadata
     id="metadata14">
    <rdf:RDF>
      <cc:Work
         rdf:about="">
        <dc:format>image/svg+xml</dc:format>
        <dc:type
           rdf:resource="http://purl.org/dc/dcmitype/StillImage" />
        <dc:title></dc:title>
      </cc:Work>
    </rdf:RDF>
  </metadata>
  <defs
     id="defs12" />
  <sodipodi:namedview
     pagecolor="#ffffff"
     bordercolor="#666666"
     borderopacity="1"
     objecttolerance="10"
     gridtolerance="10"
     guidetolerance="10"
     inkscape:pageopacity="0"
     inkscape:pageshadow="2"
     inkscape:window-width="1078"
     inkscape:window-height="480"
     id="namedview10"
     showgrid="false"
     inkscape:zoom="9.8333333"
     inkscape:cx="-0.81355932"
     inkscape:cy="12"
     inkscape:window-x="0"
     inkscape:window-y="28"
     inkscape:window-maximized="0"
     inkscape:current-layer="svg8" />
  <g
     id="g6"
     style="color:#000000;fill:#e6e6e6">
    <path
       d="M 9.83,0.38 A 3.95,3.95 0 0 0 6.53,2.07 C 5.8,3.39 6.4,4.95 5.94,6.34 c -0.27,1 0,2.06 0.73,2.78 0.62,0.78 1.38,1.8 0.96,2.85 -0.62,1.18 -1.84,1.87 -2.95,2.5 -0.3,0.12 -0.68,0.32 -1,0.57 -0.28,0.08 -0.5,0.3 -0.5,0.6 v 2.8 c 0,0.37 0.29,0.67 0.67,0.67 h 7.3 a 2.72,2.72 0 0 1 2.73,-2.7 h 2.63 V 14.99 C 15.03,14.19 13.38,13.41 12.55,11.85 12.27,10.61 13.14,9.53 13.9,8.67 14.65,7.72 14.35,6.46 14.1,5.39 13.98,4.2 14.36,2.8 13.48,1.83 A 5.56,5.56 0 0 0 9.83,0.38 Z"
       style="isolation:auto;mix-blend-mode:normal"
       id="path2"
       inkscape:connector-curvature="0" />
    <path
       d="m 17.45,14.82 v 3.06 h -3.07 v 3.05 l 3.07,0.02 V 24 h 3.07 v -3.06 h 3.06 v -3.07 h -3.06 v -3.06 z"
       style="isolation:auto;mix-blend-mode:normal"
       id="path4"
       inkscape:connector-curvature="0" />
  </g>
</svg>
